X: 684
T: Jingebeng caomao
L: 1/8
M: 2/4
K: G
d2d2 [I:setbarnb 1]| 
d4 | 
d e g e | 
d e d B | 
A B A B | 
d3B | 
A Bd2 | 
e d B A | 
G ED2 | 
z2G E | 
G4 | 
g ed2 | 
d B d e | 
d B A B | 
A GA2- | 
A ED2 | 
d2d2 | 
d B A A | 
A ED2 |]

@@@ Tune index: 9558
